static/fa/svgs/solid/shield-cat.svg

<svg xmlns="http://www.w3.org/2000/svg" viewBox="0 0 512 512"><!--! Font Awesome Free 6.1.1 by @fontawesome - https://fontawesome.com License - https://fontawesome.com/license/free (Icons: CC BY 4.0, Fonts: SIL OFL 1.1, Code: MIT License) Copyright 2022 Fonticons, Inc.--><path d="M199.1 272c0-8.8 8.1-16 16-16 9.7 0 16 7.2 16 16s-6.3 16-16 16c-7.9 0-16-7.2-16-16zm112.9 0c0 8.8-7.2 16-16 16s-16-7.2-16-16 7.2-16 16-16 16 7.2 16 16zM256.3-.007c5.6-.044 11 1.393 15.8 4.073L476.5 90.53c11.2 4.74 18.7 14.57 19.4 27.57 5.7 95.5-29.2 303.8-223.4 389.6-4.9 2.8-11.4 4.4-16.2 4.3-5.8.1-11.4-1.5-17.2-4.3C45.8 421.9 10.95 213.6 16.57 118.1c.71-13 8.26-22.83 19.47-27.57L240.4 4.066a32.18 32.18 0 0 1 15.9-4.073zM223.1 208l-64-64v128c0 53 43 96 96 96 53.9 0 96.9-43 96.9-96V144l-64 64h-64.9z"/></svg>

<svg xmlns="http://www.w3.org/2000/svg" viewBox="0 0 512 512"><!--! Font Awesome Free 6.1.1 by @fontawesome - https://fontawesome.com License - https://fontawesome.com/license/free (Icons: CC BY 4.0, Fonts: SIL OFL 1.1, Code: MIT License) Copyright 2022 Fonticons, Inc. --><path d="M199.1 272C199.1 263.2 207.2 256 215.1 256C224.8 256 231.1 263.2 231.1 272C231.1 280.8 224.8 288 215.1 288C207.2 288 199.1 280.8 199.1 272zM312 272C312 280.8 304.8 288 296 288C287.2 288 280 280.8 280 272C280 263.2 287.2 256 296 256C304.8 256 312 263.2 312 272zM256.3-.0068C261.9-.0507 267.3 1.386 272.1 4.066L476.5 90.53C487.7 95.27 495.2 105.1 495.9 118.1C501.6 213.6 466.7 421.9 272.5 507.7C267.6 510.5 261.1 512.1 256.3 512C250.5 512.1 244.9 510.5 239.1 507.7C45.8 421.9 10.95 213.6 16.57 118.1C17.28 105.1 24.83 95.27 36.04 90.53L240.4 4.066C245.2 1.386 250.7-.0507 256.3-.0068H256.3zM223.1 208L159.1 144V272C159.1 325 202.1 368 255.1 368C309 368 352 325 352 272V144L288 208H223.1z"/></svg>
